src/browser/themes/shared/zen-icons/lin/xr-fill.svg

#filter dumbComments emptyLines substitution
# This Source Code Form is subject to the terms of the Mozilla Public
# License, v. 2.0. If a copy of the MPL was not distributed with this
# file, You can obtain one at http://mozilla.org/MPL/2.0/.
<svg xmlns="http://www.w3.org/2000/svg" height="18" width="18" viewBox="0 0 18 18"><g fill="context-fill" fill-opacity="context-fill-opacity" class="nc-icon-wrapper"><path d="M15.979,7.495c-.25,0-.496-.126-.638-.354l-1.892-3.049c-.23-.37-.627-.591-1.062-.591H5.613c-.436,0-.833,.221-1.062,.591l-1.892,3.049c-.218,.352-.682,.46-1.033,.242-.352-.218-.46-.681-.242-1.033l1.892-3.049c.506-.814,1.379-1.3,2.337-1.3h6.774c.958,0,1.831,.486,2.337,1.299l1.892,3.05c.218,.352,.11,.814-.242,1.033-.123,.077-.26,.113-.395,.113Z" data-color="color-2"></path><path d="M14.25,5H3.75c-1.517,0-2.75,1.233-2.75,2.75v4.5c0,1.517,1.233,2.75,2.75,2.75h2c.861,0,1.683-.411,2.2-1.1l.45-.6c.286-.381,.914-.381,1.2,0l.45,.601c.517,.688,1.339,1.1,2.2,1.1h2c1.517,0,2.75-1.233,2.75-2.75V7.75c0-1.517-1.233-2.75-2.75-2.75ZM5.5,11.5c-.827,0-1.5-.673-1.5-1.5s.673-1.5,1.5-1.5,1.5,.673,1.5,1.5-.673,1.5-1.5,1.5Zm7,0c-.827,0-1.5-.673-1.5-1.5s.673-1.5,1.5-1.5,1.5,.673,1.5,1.5-.673,1.5-1.5,1.5Z"></path></g></svg>

#filter dumbComments emptyLines substitution
# This Source Code Form is subject to the terms of the Mozilla Public
# License, v. 2.0. If a copy of the MPL was not distributed with this
# file, You can obtain one at http://mozilla.org/MPL/2.0/.
<svg height="18" width="18" viewBox="0 0 18 18" id="svg2" fill="context-fill" fill-opacity="context-fill-opacity" xmlns="http://www.w3.org/2000/svg" xmlns:svg="http://www.w3.org/2000/svg"><g fill="context-fill" fill-opacity="context-fill-opacity" class="nc-icon-wrapper" id="g2"><path id="path2" d="M 14.25,5 H 3.75 C 2.233,5 1,6.233 1,7.75 v 4.5 C 1,13.767 2.233,15 3.75,15 h 2 c 0.861,0 1.683,-0.411 2.2,-1.1 L 8.4,13.3 c 0.286,-0.381 0.914,-0.381 1.2,0 l 0.45,0.601 c 0.517,0.688 1.339,1.1 2.2,1.1 h 2 c 1.517,0 2.75,-1.233 2.75,-2.75 V 7.75 C 17,6.233 15.767,5 14.25,5 Z M 5.5,11.5 C 4.673,11.5 4,10.827 4,10 4,9.173 4.673,8.5 5.5,8.5 6.327,8.5 7,9.173 7,10 7,10.827 6.327,11.5 5.5,11.5 Z m 7,0 C 11.673,11.5 11,10.827 11,10 c 0,-0.827 0.673,-1.5 1.5,-1.5 0.827,0 1.5,0.673 1.5,1.5 0,0.827 -0.673,1.5 -1.5,1.5 z m 3.479,-4.005 c -0.25,0 -0.496,-0.126 -0.638,-0.354 L 13.449,4.092 C 13.219,3.722 12.822,3.501 12.387,3.501 H 5.613 C 5.177,3.501 4.78,3.722 4.551,4.092 L 2.659,7.141 C 2.441,7.493 1.977,7.601 1.626,7.383 1.274,7.165 1.166,6.702 1.384,6.35 L 3.276,3.301 c 0.506,-0.814 1.379,-1.3 2.337,-1.3 h 6.774 c 0.958,0 1.831,0.486 2.337,1.299 l 1.892,3.05 c 0.218,0.352 0.11,0.814 -0.242,1.033 -0.123,0.077 -0.26,0.113 -0.395,0.113 z"/></g></svg>
